X: 48
T:So-so Polka
% Nottingham Music Database
S:Lesley Dolman, via EF
M:2/2
K:G
P:A
"G"D2B2 BAG2|"G"D2B2 BAG2|"G"D2B2 BAG2|"D7"d2F2 F4|"D7"D2c2 cBA2|
"D7"D2c2 cBA2|"D7"D2c2 cBA2|"G"e2B2 B4|"G"D2B2 BAG2|"G"D2B2 BAG2|
"G7"d3B A2G2|"C"f2e2 e4|"Am"e2A2 "D7"ABc2|"G"d2G2 GAB2|"D7"c2D2 DFA2|"G"G4 G4\
:|
K:D
P:B
de|"D"f3d A2F2|"G"G2B2 BcB2|"D"A2d2 ded2|"A7"gfe2 d3e|
"D"f3d A2F2|"G"G2B2 BcB2|"A7"a2gf efe2|"D"d2f2 d4:|


